tools/download-figma-icons/icons/outlined-medium/company.svg

<svg width="24" height="24" viewBox="0 0 24 24" fill="none" xmlns="http://www.w3.org/2000/svg">
<path fill-rule="evenodd" clip-rule="evenodd" d="M19.5 0C21.1569 0 22.5 1.36931 22.5 3.05844V18.7567C22.5 20.2787 21.4022 21.5691 19.9242 21.7844L4.92424 23.9689C3.28404 24.2077 1.76445 23.0458 1.53015 21.3737C1.51007 21.2304 1.5 21.0859 1.5 20.9412V3.05844C1.5 1.36931 2.84315 0 4.5 0H19.5ZM19.5 1.5H4.5C3.70923 1.5 3.06138 2.12558 3.00411 2.91906L3 3.0335V20.9663C3 21.0389 3.00504 21.1113 3.01507 21.1832C3.1269 21.9835 3.82428 22.5507 4.60072 22.4964L4.71212 22.4844L19.7121 20.2938C20.4122 20.1915 20.9417 19.6055 20.9955 18.8952L21 18.7757V3.0335C21 2.22507 20.3881 1.56275 19.6119 1.50421L19.5 1.5ZM14.527 10.5935C14.4294 9.17095 13.543 8.4 12.1885 8.4C10.8593 8.4 9.89914 9.31632 9.65241 10.5935H14.527ZM12.1234 16.5C9.27832 16.5 7.125 14.3709 7.125 11.4375C7.125 8.52801 9.27832 6.375 12.0988 6.375C15.3157 6.375 16.875 8.66976 16.875 11.4375C16.875 11.627 16.8497 12.0761 16.8251 12.3365H9.57498C9.77251 13.5196 10.8861 14.4417 12.1234 14.4417C13.2369 14.4417 14.4496 13.874 14.9945 12.9751L16.7513 14.3477C15.5878 15.7428 14.2521 16.5 12.1234 16.5Z" fill="black"/>
</svg>

<svg width="24" height="24" viewBox="0 0 24 24" fill="none" xmlns="http://www.w3.org/2000/svg"><path fill-rule="evenodd" clip-rule="evenodd" d="M19.5 0c1.657 0 3 1.37 3 3.058v15.699c0 1.522-1.098 2.812-2.576 3.027l-15 2.185c-1.64.239-3.16-.923-3.394-2.595a3.116 3.116 0 0 1-.03-.433V3.058C1.5 1.37 2.843 0 4.5 0h15Zm0 1.5h-15c-.79 0-1.439.626-1.496 1.42L3 3.033v17.932c0 .073.005.145.015.217.112.8.81 1.368 1.586 1.313l.111-.012 15-2.19a1.52 1.52 0 0 0 1.284-1.399l.004-.12V3.035c0-.809-.612-1.471-1.388-1.53L19.5 1.5Zm-4.973 9.094C14.429 9.17 13.543 8.4 12.189 8.4c-1.33 0-2.29.916-2.537 2.194h4.875ZM12.123 16.5c-2.845 0-4.998-2.13-4.998-5.063 0-2.909 2.153-5.062 4.974-5.062 3.217 0 4.776 2.295 4.776 5.063 0 .189-.025.638-.05.898h-7.25c.198 1.184 1.311 2.106 2.548 2.106 1.114 0 2.327-.568 2.872-1.467l1.756 1.373c-1.163 1.395-2.499 2.152-4.628 2.152Z" fill="currentColor"/></svg>
